src/24x24/places/folder-gruvbox-mix-yellow-tar.svg

<?xml version="1.0" encoding="UTF-8"?>
<svg width="24" height="24" version="1" xmlns="http://www.w3.org/2000/svg">
 <rect x="2" y="9.5" width="20" height="12" rx="1" ry="1" opacity=".2"/>
 <path d="m2 17c0 0.554 0.446 1 1 1h18c0.554 0 1-0.446 1-1v-11c0-0.554-0.446-1-1-1h-9c-1.5 0-2-2-3.5-2h-5.5c-0.554 0-1 0.446-1 1" fill="#b4730e"/>
 <rect x="2" y="8.5" width="20" height="12" rx="1" ry="1" opacity=".2"/>
 <rect x="4" y="7" width="16" height="8" rx="1" ry="1" fill="#fae7b3"/>
 <rect x="2" y="9" width="20" height="12" rx="1" ry="1" fill="#e9b143"/>
 <path d="m3 3c-0.554 0-1 0.446-1 1v0.5c0-0.554 0.446-1 1-1h5.5c1.5 0 2 2 3.5 2h9c0.554 0 1 0.446 1 1v-0.5c0-0.554-0.446-1-1-1h-9c-1.5 0-2-2-3.5-2z" fill="#fae7b3" opacity=".1"/>
 <g fill="#4f422e">
  <path d="m12 9v1h1v-1h-1zm0 1h-1v1h1v-1zm0 1v1c0.552 0 1-0.5 1-1h-1z"/>
  <path d="m12 12c-1.105 0-2 0.9-2 2v4c0 1.1 0.895 2 2 2s2-0.9 2-2v-4c0-1.1-0.895-2-2-2zm0 1c0.552 0 1 0.4 1 1 0 0.5-0.448 1-1 1s-1-0.5-1-1c0-0.6 0.448-1 1-1zm0 3c0.552 0 1 0.4 1 1v1c0 0.5-0.448 1-1 1s-1-0.5-1-1v-1c0-0.6 0.448-1 1-1z"/>
 </g>
</svg>

<svg xmlns="http://www.w3.org/2000/svg" width="24" height="24" version="1">
 <rect style="opacity:0.2" width="20" height="12" x="2" y="9.5" rx="1" ry="1"/>
 <path style="fill:#b4730e" d="M 2,17 C 2,17.554 2.446,18 3,18 H 21 C 21.554,18 22,17.554 22,17 V 6 C 22,5.446 21.554,5 21,5 H 12 C 10.5,5 10,3 8.5,3 H 3 C 2.446,3 2,3.446 2,4"/>
 <rect style="opacity:0.2" width="20" height="12" x="2" y="8.5" rx="1" ry="1"/>
 <rect style="fill:#fae7b3" width="16" height="8" x="4" y="7" rx="1" ry="1"/>
 <rect style="fill:#e9b143" width="20" height="12" x="2" y="9" rx="1" ry="1"/>
 <path style="opacity:0.1;fill:#fae7b3" d="M 3,3 C 2.446,3 2,3.446 2,4 V 4.5 C 2,3.946 2.446,3.5 3,3.5 H 8.5 C 10,3.5 10.5,5.5 12,5.5 H 21 C 21.554,5.5 22,5.946 22,6.5 V 6 C 22,5.446 21.554,5 21,5 H 12 C 10.5,5 10,3 8.5,3 Z"/>
 <g>
  <path style="fill:#4f422e" d="M 12 9 L 12 10 L 13 10 L 13 9 L 12 9 z M 12 10 L 11 10 L 11 11 L 12 11 L 12 10 z M 12 11 L 12 12 C 12.552 12 13 11.5 13 11 L 12 11 z"/>
  <path style="fill:#4f422e" d="M 12,12 C 10.895,12 10,12.9 10,14 V 18 C 10,19.1 10.895,20 12,20 13.105,20 14,19.1 14,18 V 14 C 14,12.9 13.105,12 12,12 Z M 12,13 C 12.552,13 13,13.4 13,14 13,14.5 12.552,15 12,15 11.448,15 11,14.5 11,14 11,13.4 11.448,13 12,13 Z M 12,16 C 12.552,16 13,16.4 13,17 V 18 C 13,18.5 12.552,19 12,19 11.448,19 11,18.5 11,18 V 17 C 11,16.4 11.448,16 12,16 Z"/>
 </g>
</svg>
